X: 1
T: Farewell To The Troubles Of The World
M: 6/8
L: 1/8
R: jig
K: Dmaj
A|:~d3 dcA|GFG AFD|~F3 GFD|FGA =c2 A|
dec dcA|~G3 AFD|FEF GEA|1 DED DFA:|2 DED D2 E||
|:FED FGA|=cdB cAG|Afe dec|ABc d2 =c|
~B3 d=cA|GFG AFD|FEF GEA|1 DED D2 E:|2 DED DFA||
